X: 868
T: The Day After the Fair
N:"Collected by J.O'Neill"
B:O'Neill's 868
Z:Transcribed by Dan G. Petersen, dangp@post6.tele.dk
M:6/8
L:1/8
K:Gm
(G/A/)|B2c dBG|dBG dBG|A2B cAF|cAF cAF|
B2B ~c3|dgg gab|^fge dec|BGG G2:|
c|(d>ed/c/) dec|dBG GAB|(c>dc/B/) cdB|cAF FGA|
~B3 ~c3|dgg gab|^fge dec|BGG G2:|


